svg/u1f35b.svg

<svg viewBox="0 0 128 128" xmlns="http://www.w3.org/2000/svg">
  <path d="M68.01,37.37L13.25,48.59c0,0-8.4,7.57-8.88,20.15C4.14,74.85,5.16,87,16.26,97.37 c8.63,8.06,23.07,14.56,47.12,15.08c22.32,0.48,37.19-6.66,46.14-14.23c11.95-10.1,13.82-22.23,13.57-30.25 c-0.4-12.68-10.45-19.8-11.34-20.91S68.01,37.37,68.01,37.37z" fill="#D4D4D3"/>
  <path d="M63.09,107.24c39.84,0,58.41-21.87,57.97-42.09c-0.45-20.52-28.72-35.12-57.22-34.6 c-49.73,0.9-56.62,24.12-56.92,36.7C6.57,82.08,20.1,107.24,63.09,107.24z" fill="#F7F6F5"/>
  <path d="M12.01,63.05C9.17,74.89,18,101.7,63.69,101.7c42.39,0,53.32-24.41,53.32-36.25 c0-12.13-11.38-33.4-54.97-31.01C20.39,36.73,13.54,56.68,12.01,63.05z" fill="#DF7F14"/>
  <path d="M92.75,47.43c0.45,0.89,3.71,1.74,6.17,2.34s5.81,1.26,6.53-0.12c0.72-1.38-1.62-4.91-4.43-6.41 c-2.82-1.5-5.48,0.09-6.11,0.6C93.95,44.62,92.09,46.12,92.75,47.43z" fill="#FF5119"/>
  <path d="M16.05,63.26c-1.52,0-3.28,3.6-1.77,7.13s3.53,4.79,4.23,6.62c0.69,1.83,1.45,6.24,4.6,9.34 c3.15,3.09,7.7,3.53,9.59,4.16c1.89,0.63,6.94,4.74,15.08,5.99c9.02,1.39,21.51-1.01,21.32-2.9c-0.19-1.88-13.44-3.6-15.9-4.16 s-11.42-2.02-17.91-5.42c-5.37-2.82-9.71-5.93-14.32-12.81C17.67,66.28,16.93,63.26,16.05,63.26z" fill="#F5B03E"/>
  <path d="M44.28,22.47l-5.5,4.7l-8.37,3.17l-2.43,7.19c0,0-4,2.77-4.17,3.82c-0.16,1.05-2.54,9.77-2.54,9.77 s-0.62,3.39-0.57,4.92c0.05,1.53,5.67,13.07,24.35,16.35c18.68,3.28,30.66-0.77,38.83-5.37c7.75-4.37,9.16-9.05,9.16-9.05l-0.4-8.22 c0,0-2.52-9.64-3.49-11.8s-8.27-10.13-8.73-10.26s-9.86-5.96-9.86-5.96l-13.76-2.83L44.28,22.47z" fill="#FEFEFE"/>
  <path d="M15.85,67.62c-0.96,0.46-0.38,2.51,0.88,4.34s2.34,2.63,3.26,5.43c0.92,2.8,2.84,7.64,6.35,9.65 s5.6,0.33,5.68-0.75c0.12-1.62-1.92-1.75-5.56-5.39c-3.66-3.66-6.31-8.19-7.69-10.36C17.94,69.22,16.81,67.16,15.85,67.62z" fill="#FEFEFE"/>
  <path d="M39.07,87.33c-1.25-0.75-3.13,1.25-1.55,4.13c1.59,2.88,4.3,2.21,4.47,1.21 c0.27-1.63-1.29-1.96-1.8-2.97C39.7,88.71,40.42,88.14,39.07,87.33z" fill="#FEFEFE"/>
  <path d="M29.45,38.57c0,0-3.03,1.02-4.1,4.06c-1.08,3.04-1.09,7.07-1.09,7.07s-1.86,1.37-2.65,3.44 c-0.83,2.18-0.52,3.86-0.86,3.79c-0.76-0.16-1.29-3.51-1.03-5.18c0.34-2.14,1.26-2.98,1.26-2.98s-0.64-4.69,1.09-8.12 c1.72-3.43,4.59-5.15,4.59-5.15s1.09-4.67,3.92-7s6.04-2.72,6.04-2.72s1.15-3.46,4.74-5.45c3.6-1.99,7.53-1.03,7.53-1.03 s3.58-2.93,8.51-2.93c4.92,0,7.27,2.57,7.27,2.57s4.22-0.65,7.34,0.95c3.12,1.6,4.89,4.35,4.89,4.35s3.35,0.6,5.84,3.03 c2.62,2.55,3.63,5.71,3.63,5.71s4.5,2.48,6.02,6.2c1.85,4.54,0.65,9.02,0.65,9.02s1.89,2.33,1.58,5.72 c-0.3,3.39-1.98,6.45-2.68,6.22c-0.15-0.05,0.61-4.58-0.02-6.86c-0.51-1.85-2.47-4.66-2.47-4.66s0.28-5.22-1.37-8.18 c-1.65-2.95-4.7-3.92-4.7-3.92s-1.19-3.88-3.46-5.91c-2.27-2.04-4.88-2.2-4.88-2.2s-2.31-3.5-4.99-4.51 c-2.68-1.01-5.47-0.55-5.47-0.55s-3.66-2.33-7.28-2.31c-3.99,0.02-6.92,2.63-6.92,2.63s-3.41-1.14-6.65,1.07 c-3.24,2.22-4.14,4.8-4.14,4.8s-3.78,0.31-6.23,2.45S29.45,38.57,29.45,38.57z" fill="#B0B0B0"/>
  <path d="M73.18,34.2c-1.76,0.03-1.87,2.46-2.71,3.93c-0.75,1.31-3.57,1.96-2.45,3.83 c1,1.67,4.7,0.78,6.11-2.17C75.12,37.73,75.42,34.17,73.18,34.2z" fill="#D4D4D3"/>
  <path d="M80.48,43.04c-1.7,0.18-1.03,2.44-1.61,4.18s-2.75,3.33-1.54,4.52c1.21,1.19,4.03-0.75,4.88-3.91 S81.87,42.89,80.48,43.04z" fill="#D4D4D3"/>
  <path d="M71.25,49.37c-1.93-0.04-1.56,1.99-2.73,3.71c-1.17,1.71-2.75,2.32-2,3.53 c0.75,1.21,3.55,1.42,5.25-1.75C73.39,51.82,72.72,49.4,71.25,49.37z" fill="#D4D4D3"/>
  <path d="M72.92,61.17c-1.34,2.17-3.62,1.94-2.9,3.78c0.74,1.89,4.11,1.1,5.74-1.39 c1.37-2.11,2.44-5.65,0.08-5.76C73.87,57.72,74.01,59.41,72.92,61.17z" fill="#D4D4D3"/>
  <path d="M60.12,59.85c-1.4,0.14-1.41,1.88-2.41,3.17c-1.16,1.51-3.36,1.79-2.59,3.59s4.18,1.57,6.01-1 C62.67,63.46,62.78,59.59,60.12,59.85z" fill="#D4D4D3"/>
  <path d="M21.95,62.83c-0.93,0.28-2.03,3.11-1.8,4.13c0.3,1.32,3.23,4.01,4.91,3.95s5.21-2.28,5.57-3.17 c0.36-0.9,0.06-2.82-0.36-3.35c-0.42-0.54-1.86-2.04-2.7-2.04S23.15,62.47,21.95,62.83z" fill="#FF8E00"/>
  <path d="M25.9,71.39c-0.94,1.41,0.24,3.23,1.2,4.37c0.96,1.14,3.23,4.11,7.61,3.65 c5.21-0.54,7.01-5.87,7.01-8.15s-0.72-3.71-2.46-3.35c-2.27,0.47-2.28,2.04-4.79,2.64C31.95,71.15,27.22,69.42,25.9,71.39z" fill="#FCC219"/>
  <path d="M41.06,77.56c-0.16,1.43-0.18,4.55,1.14,5.03c1.32,0.48,6.83,0.06,7.79-0.24 c0.96-0.3,1.32-2.4,0.72-3.23c-0.6-0.84-4.73-4.13-6.41-4.07S41.12,77.02,41.06,77.56z" fill="#FF8E00"/>
  <path d="M52.74,84.27c1.08,0.54,2.04,4.61,1.74,5.57c-0.3,0.96-1.38,2.82-1.92,2.99 c-0.54,0.18-5.33,0.24-7.31-0.06c-1.72-0.26-3.65-2.28-3.47-4.91c0.18-2.64,2.1-3.59,4.91-3.83C49.5,83.79,52.74,84.27,52.74,84.27z " fill="#FF5319"/>
  <path d="M59.21,74.63c-1.72,0.27-5.21,3.05-5.33,5.39s1.68,4.07,3.11,4.07c1.44,0,7.07-5.81,6.71-6.89 C63.34,76.12,61.48,74.27,59.21,74.63z" fill="#FF5319"/>
  <path d="M63.34,80.32c0.89,1.09,4.55,3.29,6.59,2.94s7.01-2.4,6.53-5.33c-0.48-2.94-4.73-6.53-6.41-7.13 c-1.68-0.6-4.43-0.18-5.63,0.9C63.22,72.77,62.26,79,63.34,80.32z" fill="#F8C977"/>
  <path d="M82.03,73.55c-1.45,0.04-2.28,1.8-2.52,2.4c-0.24,0.6-0.78,2.64-1.44,3.95 c-0.66,1.32-3.71,4.67-2.58,6.47c1.14,1.8,3.53,1.44,6.59,0.96c3.05-0.48,5.39-1.8,5.75-4.55c0.36-2.76,0.6-4.97-0.12-5.81 C87,76.12,84.3,73.49,82.03,73.55z" fill="#FCC219"/>
  <path d="M75.14,91.52c1.26-0.72,6.11-4.49,7.91-4.43s3.47,1.38,3.95,2.46c0.48,1.08,0.66,4.13-0.36,4.97 c-1.02,0.84-4.37,1.32-5.81,1.44s-6.54,0.71-6.89-1.68C73.64,92.24,75.14,91.52,75.14,91.52z" fill="#FF8E00"/>
  <path d="M92.57,82.89c-0.06,2.82,4.67,4.67,6.11,4.73s4.61-0.72,6.29-2.94c1.1-1.46,2.1-3.77,1.5-5.21 s-1.38-2.7-3.47-2.88c-2.1-0.18-6.65-0.36-7.85,0.48C93.95,77.92,92.59,81.88,92.57,82.89z" fill="#FF5119"/>
  <path d="M91.19,68.04c-0.55,0.95,0.44,4.09,1.74,5.45c1.08,1.14,2.7,2.4,6.05,2.04s6.53-2.58,7.25-3.65 c0.72-1.08,1.74-3.29,1.14-4.37c-0.6-1.08-5.99-0.42-8.45-0.42S91.85,66.9,91.19,68.04z" fill="#F8C977"/>
  <path d="M103.47,52.88c-0.11,1.08,1.92,2.88,2.76,3.47c0.84,0.6,3.29,1.26,4.13,0.72 c0.84-0.54,0.97-3.87,0.6-4.79c-0.48-1.2-2.64-2.46-4.01-2.16C105.57,50.43,103.59,51.75,103.47,52.88z" fill="#F9CA76"/>
  <path d="M101.85,53.66c-1.62,1.02-3.95,4.55-4.55,5.63c-0.6,1.08-1.86,3.59,0.3,4.43 c2.16,0.84,6.29,0.12,7.79-0.6c1.5-0.72,4.37-2.22,4.43-4.13s-1.32-3.29-2.99-4.37S103.56,52.59,101.85,53.66z" fill="#FF8E00"/>
  <path d="M107.9,65.94c0.94,1.09,2.22,0.96,4.13,0.6c1.92-0.36,4.43-1.2,4.19-2.94s-2.22-2.99-3.17-3.41 c-0.96-0.42-4.25-0.24-5.21,0.96C106.89,62.35,107.13,65.04,107.9,65.94z" fill="#FCC219"/>
</svg>

<svg viewBox="0 0 128 128" xmlns="http://www.w3.org/2000/svg">
  <defs/>
  <path d="M68.01,37.37 L13.25,48.59 C13.25,48.59 4.85,56.16 4.37,68.74 C4.14,74.85 5.16,87 16.26,97.37 C24.89,105.43 39.33,111.93 63.38,112.45 C85.7,112.93 100.57,105.79 109.52,98.22 C121.47,88.12 123.34,75.99 123.09,67.97 C122.69,55.29 112.64,48.17 111.75,47.06 C110.86,45.95 68.01,37.37 68.01,37.37 Z" fill="#D4D4D3"/>
  <path d="M63.09,107.24 C102.93,107.24 121.5,85.37 121.06,65.15 C120.61,44.63 92.34,30.03 63.84,30.55 C14.11,31.45 7.22,54.67 6.92,67.25 C6.57,82.08 20.1,107.24 63.09,107.24 Z" fill="#F7F6F5"/>
  <path d="M12.01,63.05 C9.17,74.89 18,101.7 63.69,101.7 C106.08,101.7 117.01,77.29 117.01,65.45 C117.01,53.32 105.63,32.05 62.04,34.44 C20.39,36.73 13.54,56.68 12.01,63.05 Z" fill="#DF7F14"/>
  <path d="M92.75,47.43 C93.2,48.32 96.46,49.17 98.92,49.77 C101.38,50.37 104.73,51.03 105.45,49.65 C106.17,48.27 103.83,44.74 101.02,43.24 C98.2,41.74 95.54,43.33 94.91,43.84 C93.95,44.62 92.09,46.12 92.75,47.43 Z" fill="#FF5119"/>
  <path d="M16.05,63.26 C14.53,63.26 12.77,66.86 14.28,70.39 C15.79,73.92 17.81,75.18 18.51,77.01 C19.2,78.84 19.96,83.25 23.11,86.35 C26.26,89.44 30.81,89.88 32.7,90.51 C34.59,91.14 39.64,95.25 47.78,96.5 C56.8,97.89 69.29,95.49 69.1,93.6 C68.91,91.72 55.66,90 53.2,89.44 C50.74,88.88 41.78,87.42 35.29,84.02 C29.92,81.2 25.58,78.09 20.97,71.21 C17.67,66.28 16.93,63.26 16.05,63.26 Z" fill="#F5B03E"/>
  <path d="M44.28,22.47 L38.78,27.17 L30.41,30.34 L27.98,37.53 C27.98,37.53 23.98,40.3 23.81,41.35 C23.65,42.4 21.27,51.12 21.27,51.12 C21.27,51.12 20.65,54.51 20.7,56.04 C20.75,57.57 26.37,69.11 45.05,72.39 C63.73,75.67 75.71,71.62 83.88,67.02 C91.63,62.65 93.04,57.97 93.04,57.97 L92.64,49.75 C92.64,49.75 90.12,40.11 89.15,37.95 C88.18,35.79 80.88,27.82 80.42,27.69 C79.96,27.56 70.56,21.73 70.56,21.73 L56.8,18.9 L44.28,22.47 Z" fill="#FEFEFE"/>
  <path d="M15.85,67.62 C14.89,68.08 15.47,70.13 16.73,71.96 C17.99,73.79 19.07,74.59 19.99,77.39 C20.91,80.19 22.83,85.03 26.34,87.04 C29.85,89.05 31.94,87.37 32.02,86.29 C32.14,84.67 30.1,84.54 26.46,80.9 C22.8,77.24 20.15,72.71 18.77,70.54 C17.94,69.22 16.81,67.16 15.85,67.62 Z" fill="#FEFEFE"/>
  <path d="M39.07,87.33 C37.82,86.58 35.94,88.58 37.52,91.46 C39.11,94.34 41.82,93.67 41.99,92.67 C42.26,91.04 40.7,90.71 40.19,89.7 C39.7,88.71 40.42,88.14 39.07,87.33 Z" fill="#FEFEFE"/>
  <path d="M29.45,38.57 C29.45,38.57 26.42,39.59 25.35,42.63 C24.27,45.67 24.26,49.7 24.26,49.7 C24.26,49.7 22.4,51.07 21.61,53.14 C20.78,55.32 21.09,57 20.75,56.93 C19.99,56.77 19.46,53.42 19.72,51.75 C20.06,49.61 20.98,48.77 20.98,48.77 C20.98,48.77 20.34,44.08 22.07,40.65 C23.79,37.22 26.66,35.5 26.66,35.5 C26.66,35.5 27.75,30.83 30.58,28.5 C33.41,26.17 36.62,25.78 36.62,25.78 C36.62,25.78 37.77,22.32 41.36,20.33 C44.96,18.34 48.89,19.3 48.89,19.3 C48.89,19.3 52.47,16.37 57.4,16.37 C62.32,16.37 64.67,18.94 64.67,18.94 C64.67,18.94 68.89,18.29 72.01,19.89 C75.13,21.49 76.9,24.24 76.9,24.24 C76.9,24.24 80.25,24.84 82.74,27.27 C85.36,29.82 86.37,32.98 86.37,32.98 C86.37,32.98 90.87,35.46 92.39,39.18 C94.24,43.72 93.04,48.2 93.04,48.2 C93.04,48.2 94.93,50.53 94.62,53.92 C94.32,57.31 92.64,60.37 91.94,60.14 C91.79,60.09 92.55,55.56 91.92,53.28 C91.41,51.43 89.45,48.62 89.45,48.62 C89.45,48.62 89.73,43.4 88.08,40.44 C86.43,37.49 83.38,36.52 83.38,36.52 C83.38,36.52 82.19,32.64 79.92,30.61 C77.65,28.57 75.04,28.41 75.04,28.41 C75.04,28.41 72.73,24.91 70.05,23.9 C67.37,22.89 64.58,23.35 64.58,23.35 C64.58,23.35 60.92,21.02 57.3,21.04 C53.31,21.06 50.38,23.67 50.38,23.67 C50.38,23.67 46.97,22.53 43.73,24.74 C40.49,26.96 39.59,29.54 39.59,29.54 C39.59,29.54 35.81,29.85 33.36,31.99 C30.91,34.13 29.45,38.57 29.45,38.57 Z" fill="#B0B0B0"/>
  <path d="M73.18,34.2 C71.42,34.23 71.31,36.66 70.47,38.13 C69.72,39.44 66.9,40.09 68.02,41.96 C69.02,43.63 72.72,42.74 74.13,39.79 C75.12,37.73 75.42,34.17 73.18,34.2 Z" fill="#D4D4D3"/>
  <path d="M80.48,43.04 C78.78,43.22 79.45,45.48 78.87,47.22 C78.29,48.96 76.12,50.55 77.33,51.74 C78.54,52.93 81.36,50.99 82.21,47.83 C83.06,44.67 81.87,42.89 80.48,43.04 Z" fill="#D4D4D3"/>
  <path d="M71.25,49.37 C69.32,49.33 69.69,51.36 68.52,53.08 C67.35,54.79 65.77,55.4 66.52,56.61 C67.27,57.82 70.07,58.03 71.77,54.86 C73.39,51.82 72.72,49.4 71.25,49.37 Z" fill="#D4D4D3"/>
  <path d="M72.92,61.17 C71.58,63.34 69.3,63.11 70.02,64.95 C70.76,66.84 74.13,66.05 75.76,63.56 C77.13,61.45 78.2,57.91 75.84,57.8 C73.87,57.72 74.01,59.41 72.92,61.17 Z" fill="#D4D4D3"/>
  <path d="M60.12,59.85 C58.72,59.99 58.71,61.73 57.71,63.02 C56.55,64.53 54.35,64.81 55.12,66.61 C55.89,68.41 59.3,68.18 61.13,65.61 C62.67,63.46 62.78,59.59 60.12,59.85 Z" fill="#D4D4D3"/>
  <path d="M21.95,62.83 C21.02,63.11 19.92,65.94 20.15,66.96 C20.45,68.28 23.38,70.97 25.06,70.91 C26.74,70.85 30.27,68.63 30.63,67.74 C30.99,66.84 30.69,64.92 30.27,64.39 C29.85,63.85 28.41,62.35 27.57,62.35 C26.73,62.35 23.15,62.47 21.95,62.83 Z" fill="#FF8E00"/>
  <path d="M25.9,71.39 C24.96,72.8 26.14,74.62 27.1,75.76 C28.06,76.9 30.33,79.87 34.71,79.41 C39.92,78.87 41.72,73.54 41.72,71.26 C41.72,68.98 41,67.55 39.26,67.91 C36.99,68.38 36.98,69.95 34.47,70.55 C31.95,71.15 27.22,69.42 25.9,71.39 Z" fill="#FCC219"/>
  <path d="M41.06,77.56 C40.9,78.99 40.88,82.11 42.2,82.59 C43.52,83.07 49.03,82.65 49.99,82.35 C50.95,82.05 51.31,79.95 50.71,79.12 C50.11,78.28 45.98,74.99 44.3,75.05 C42.62,75.11 41.12,77.02 41.06,77.56 Z" fill="#FF8E00"/>
  <path d="M52.74,84.27 C53.82,84.81 54.78,88.88 54.48,89.84 C54.18,90.8 53.1,92.66 52.56,92.83 C52.02,93.01 47.23,93.07 45.25,92.77 C43.53,92.51 41.6,90.49 41.78,87.86 C41.96,85.22 43.88,84.27 46.69,84.03 C49.5,83.79 52.74,84.27 52.74,84.27 Z" fill="#FF5319"/>
  <path d="M59.21,74.63 C57.49,74.9 54,77.68 53.88,80.02 C53.76,82.36 55.56,84.09 56.99,84.09 C58.43,84.09 64.06,78.28 63.7,77.2 C63.34,76.12 61.48,74.27 59.21,74.63 Z" fill="#FF5319"/>
  <path d="M63.34,80.32 C64.23,81.41 67.89,83.61 69.93,83.26 C71.97,82.91 76.94,80.86 76.46,77.93 C75.98,74.99 71.73,71.4 70.05,70.8 C68.37,70.2 65.62,70.62 64.42,71.7 C63.22,72.77 62.26,79 63.34,80.32 Z" fill="#F8C977"/>
  <path d="M82.03,73.55 C80.58,73.59 79.75,75.35 79.51,75.95 C79.27,76.55 78.73,78.59 78.07,79.9 C77.41,81.22 74.36,84.57 75.49,86.37 C76.63,88.17 79.02,87.81 82.08,87.33 C85.13,86.85 87.47,85.53 87.83,82.78 C88.19,80.02 88.43,77.81 87.71,76.97 C87,76.12 84.3,73.49 82.03,73.55 Z" fill="#FCC219"/>
  <path d="M75.14,91.52 C76.4,90.8 81.25,87.03 83.05,87.09 C84.85,87.15 86.52,88.47 87,89.55 C87.48,90.63 87.66,93.68 86.64,94.52 C85.62,95.36 82.27,95.84 80.83,95.96 C79.39,96.08 74.29,96.67 73.94,94.28 C73.64,92.24 75.14,91.52 75.14,91.52 Z" fill="#FF8E00"/>
  <path d="M92.57,82.89 C92.51,85.71 97.24,87.56 98.68,87.62 C100.12,87.68 103.29,86.9 104.97,84.68 C106.07,83.22 107.07,80.91 106.47,79.47 C105.87,78.03 105.09,76.77 103,76.59 C100.9,76.41 96.35,76.23 95.15,77.07 C93.95,77.92 92.59,81.88 92.57,82.89 Z" fill="#FF5119"/>
  <path d="M91.19,68.04 C90.64,68.99 91.63,72.13 92.93,73.49 C94.01,74.63 95.63,75.89 98.98,75.53 C102.33,75.17 105.51,72.95 106.23,71.88 C106.95,70.8 107.97,68.59 107.37,67.51 C106.77,66.43 101.38,67.09 98.92,67.09 C96.46,67.09 91.85,66.9 91.19,68.04 Z" fill="#F8C977"/>
  <path d="M103.47,52.88 C103.36,53.96 105.39,55.76 106.23,56.35 C107.07,56.95 109.52,57.61 110.36,57.07 C111.2,56.53 111.33,53.2 110.96,52.28 C110.48,51.08 108.32,49.82 106.95,50.12 C105.57,50.43 103.59,51.75 103.47,52.88 Z" fill="#F9CA76"/>
  <path d="M101.85,53.66 C100.23,54.68 97.9,58.21 97.3,59.29 C96.7,60.37 95.44,62.88 97.6,63.72 C99.76,64.56 103.89,63.84 105.39,63.12 C106.89,62.4 109.76,60.9 109.82,58.99 C109.88,57.08 108.5,55.7 106.83,54.62 C105.16,53.54 103.56,52.59 101.85,53.66 Z" fill="#FF8E00"/>
  <path d="M107.9,65.94 C108.84,67.03 110.12,66.9 112.03,66.54 C113.95,66.18 116.46,65.34 116.22,63.6 C115.98,61.86 114,60.61 113.05,60.19 C112.09,59.77 108.8,59.95 107.84,61.15 C106.89,62.35 107.13,65.04 107.9,65.94 Z" fill="#FCC219"/>
</svg>
